assets/images/favicon.svg

<svg xmlns="http://www.w3.org/2000/svg" width="30" height="30" fill="none" viewBox="0 0 725 750"><path fill="#000" d="M549.579 685 362.5 298 175.421 685H31.428L0 750h217l145-300 145 300h218l-31.428-65H549.579Z"/><path fill="#000" d="M662.65 621 362.5 0 104.4 534h.016l-31.422 65h-.01L62.35 621h71.071l120.61-249.499-.028-.058L362.5 147l76.045 157.31-.27.558L591.095 621h71.555ZM694.067 686h-.011L725 750l-30.933-64ZM0 750l30.944-64h-.01L0 750Z"/><path fill="#000" d="m362 299 .008.017-5.039 10.425-.008-.017L362 299Z"/></svg>

<svg width="725" height="750" viewBox="0 0 725 750" fill="none" xmlns="http://www.w3.org/2000/svg">
<path d="M549.579 685L362.5 298L175.421 685H31.4276L0 750H217L362 450L507 750H725L693.572 685H549.579Z" fill="#749B0C"/>
<path d="M662.65 621L362.5 0L104.4 534H104.416L72.9944 599H72.9833L62.35 621H133.421L254.031 371.501L254.003 371.443L362.5 147L438.545 304.31L438.275 304.868L591.095 621H662.65Z" fill="#749B0C"/>
<path d="M694.067 686H694.056L725 750L694.067 686Z" fill="#749B0C"/>
<path d="M0 750L30.9441 686H30.9333L0 750Z" fill="#749B0C"/>
<path d="M362 299L362.008 299.017L356.969 309.442L356.961 309.425L362 299Z" fill="#749B0C"/>
</svg>
